dist/img/svg/icon-in.svg

<svg width="30" height="30" viewBox="0 0 30 30" fill="none" xmlns="http://www.w3.org/2000/svg">
<rect x="-0.00012207" width="30" height="30" rx="15" fill="#C434A4"/>
<!-- <rect x="-0.00012207" width="30" height="30" rx="15" fill="url(#paint0_linear)"/> -->
<path d="M18.3603 7.5H11.6392C9.3568 7.5 7.49988 9.35701 7.49988 11.6395V18.3605C7.49988 20.6431 9.3568 22.5 11.6392 22.5H18.3603C20.643 22.5 22.4999 20.643 22.4999 18.3605V11.6395C22.5 9.35701 20.643 7.5 18.3603 7.5ZM21.1691 18.3605C21.1691 19.9092 19.9091 21.1691 18.3604 21.1691H11.6392C10.0906 21.1692 8.83075 19.9092 8.83075 18.3605V11.6395C8.83075 10.0909 10.0906 8.83087 11.6392 8.83087H18.3603C19.909 8.83087 21.169 10.0909 21.169 11.6395V18.3605H21.1691Z" fill="white"/>
<path d="M14.9999 11.25C12.9321 11.25 11.2499 12.9323 11.2499 15.0001C11.2499 17.0678 12.9321 18.75 14.9999 18.75C17.0677 18.75 18.7499 17.0678 18.7499 15.0001C18.7499 12.9323 17.0677 11.25 14.9999 11.25ZM14.9999 17.4587C13.6442 17.4587 12.5411 16.3557 12.5411 15C12.5411 13.6442 13.6441 12.5412 14.9999 12.5412C16.3557 12.5412 17.4586 13.6442 17.4586 15C17.4586 16.3557 16.3556 17.4587 14.9999 17.4587Z" fill="white"/>
<path d="M18.7499 10C18.4215 10 18.0989 10.133 17.8669 10.3659C17.6339 10.5977 17.4999 10.9205 17.4999 11.25C17.4999 11.5785 17.634 11.9011 17.8669 12.1341C18.0987 12.3659 18.4215 12.5 18.7499 12.5C19.0794 12.5 19.401 12.3659 19.634 12.1341C19.8669 11.9011 19.9999 11.5784 19.9999 11.25C19.9999 10.9205 19.8669 10.5977 19.634 10.3659C19.4021 10.133 19.0794 10 18.7499 10Z" fill="white"/>
<!-- <defs>
<linearGradient id="paint0_linear" x1="1.87488" y1="30" x2="28.1249" y2="-4.1211e-07" gradientUnits="userSpaceOnUse">
<stop offset="0.143564" stop-color="#FE833E"/>
<stop offset="0.505208" stop-color="#E3407D"/>
<stop offset="0.851035" stop-color="#6934C4"/>
</linearGradient>
</defs> -->
</svg>

<svg width="30" height="30" viewBox="0 0 30 30" fill="none" xmlns="http://www.w3.org/2000/svg"><rect width="30" height="30" rx="15" fill="#C434A4"/><path d="M18.36 7.5h-6.72a4.144 4.144 0 00-4.14 4.14v6.72a4.144 4.144 0 004.14 4.14h6.72a4.144 4.144 0 004.14-4.14v-6.72a4.144 4.144 0 00-4.14-4.14zm2.81 10.86a2.812 2.812 0 01-2.81 2.81h-6.72a2.812 2.812 0 01-2.81-2.81v-6.72a2.812 2.812 0 012.81-2.81h6.72a2.812 2.812 0 012.809 2.81v6.72z" fill="#fff"/><path d="M15 11.25A3.754 3.754 0 0011.25 15 3.754 3.754 0 0015 18.75 3.754 3.754 0 0018.75 15 3.754 3.754 0 0015 11.25zm0 6.209A2.462 2.462 0 0112.54 15 2.462 2.462 0 0115 12.541 2.461 2.461 0 0117.459 15a2.462 2.462 0 01-2.46 2.459z" fill="#fff"/><path d="M18.75 10a1.255 1.255 0 00-1.25 1.25c0 .329.134.651.367.884.232.232.555.366.883.366.33 0 .651-.134.884-.366A1.26 1.26 0 0020 11.25c0-.33-.133-.652-.366-.884A1.256 1.256 0 0018.75 10z" fill="#fff"/></svg>
